X:4882
T:Ese Mandiln
M:4/4
L:1/4
Q:1/4=120
S:Trad
R:Titos
O:Spain
A:Jimnez de Jamuz, KINGDOM OF LEON
K:F
cB|
:AG/2A/2BB|A2BA|
G/2-F/2 F/2E/2 FG-|1F2cB:|2F2A/2A/2 A/2G/2|
|F E/2F/2 AG|F2 A/2A/2 A/2G/2| F E/2F/2 AG|
F2 A/2A/2 A/2G/2| F E/2F/2 AG|F4-|F2z2||
W: Aunque canto y me divierto,
W: sabe Dios mi corazo/n:
W: lo tengo ma/s intrigado
W: que la monda de un limo/n.
W:
W: Ese mandili/n que me diste ayer
W: yo lo recosi/, yo lo remende/,
W: yo le eche/ un remiendo para pretender.
W:
W: Todos los anocheceres
W: salgo por ver si te veo,
W: porque tu/ solita eres
W: el jardn de mi recreo.
W:
W: Ese mandili/n que me diste ayer
W: yo lo recosi/, yo lo remende/,
W: yo le eche/ un remiendo para pretender.
